X:28
T:GB/7b/28 Thomas Hegan and Sally Blair 
%%VWML:GB-7b-28-0
F:http://www.vwml.org/record/GB/7b/28
C:Transcribed by Simon Furey and Lewis Jones
L:1/4
M:3/4
I:linebreak $
K:Gmix
"^(a)" D | G G D | B c d | c/B/ G G | G2 :| B/c/ | d d g |$ d/e/ f A | c"^(b)" c A/G/ |
F2"^(c)" B/A/ | G G D | B c d | c/B/ G G | G2 ||$"^(a) var." B/A/ | G G D | B c d | c/B/ G G | G2 :| B/c/ | d d g |$ d/e/ f A | c"^(b) var." c/B/ A/G/ | F2"^(c) var." D | G G D | B c d |
c/B/ G G | G2 |]

